v2ex.svg

<svg viewBox="0 0 24 24" xmlns="http://www.w3.org/2000/svg"><path d="M0.671127 1.93309L14.4924 1.93309C14.8638 1.93309 15.2186 2.08698 15.4724 2.35816L23.6378 11.0828C24.1207 11.5989 24.1207 12.4011 23.6378 12.9172L15.4724 21.6418C15.2186 21.913 14.8638 22.0669 14.4924 22.0669L0.671127 22.0669C0.300474 22.0669-2.91182e-17 21.7664 0 21.3958L0 14.5167L0 14.5167L13.1902 14.5167L15.466 12.2371C15.5968 12.1061 15.5968 11.8939 15.466 11.7629L13.1902 9.48327L13.1902 9.48327L0 9.48327L0 2.60422C-1.19902e-16 2.23356 0.300474 1.93309 0.671127 1.93309Z" fill="#000000"/></svg>

<svg viewBox="0 0 24 24" xmlns="http://www.w3.org/2000/svg"><path d="M.671 1.933h13.821c.372 0 .727.154.98.425l8.166 8.725a1.342 1.342 0 0 1 0 1.834l-8.166 8.725a1.342 1.342 0 0 1-.98.425H.672c-.372 0-.672-.3-.672-.671v-6.88h13.19l2.276-2.279a.336.336 0 0 0 0-.474l-2.276-2.28H0V2.604c0-.37.3-.67.671-.67Z"/></svg>
